src/assets/img/linkedin.svg

<svg height="512pt" viewBox="0 0 512 512" width="512pt" xmlns="http://www.w3.org/2000/svg"><path d="m256 0c-141.363281 0-256 114.636719-256 256s114.636719 256 256 256 256-114.636719 256-256-114.636719-256-256-256zm-74.390625 387h-62.347656v-187.574219h62.347656zm-31.171875-213.1875h-.40625c-20.921875 0-34.453125-14.402344-34.453125-32.402344 0-18.40625 13.945313-32.410156 35.273437-32.410156 21.328126 0 34.453126 14.003906 34.859376 32.410156 0 18-13.53125 32.402344-35.273438 32.402344zm255.984375 213.1875h-62.339844v-100.347656c0-25.21875-9.027343-42.417969-31.585937-42.417969-17.222656 0-27.480469 11.601563-31.988282 22.800781-1.648437 4.007813-2.050781 9.609375-2.050781 15.214844v104.75h-62.34375s.816407-169.976562 0-187.574219h62.34375v26.558594c8.285157-12.78125 23.109375-30.960937 56.1875-30.960937 41.019531 0 71.777344 26.808593 71.777344 84.421874zm0 0"/></svg>

<svg width="512" height="512" viewBox="0 0 512 512" fill="none" xmlns="http://www.w3.org/2000/svg">
<path d="M256 0C114.637 0 0 114.637 0 256C0 397.363 114.637 512 256 512C397.363 512 512 397.363 512 256C512 114.637 397.363 0 256 0ZM181.609 387H119.262V199.426H181.609V387ZM150.438 173.812H150.031C129.109 173.812 115.578 159.41 115.578 141.41C115.578 123.004 129.523 109 150.852 109C172.18 109 185.305 123.004 185.711 141.41C185.711 159.41 172.18 173.812 150.438 173.812ZM406.422 387H344.082V286.652C344.082 261.434 335.055 244.234 312.496 244.234C295.273 244.234 285.016 255.836 280.508 267.035C278.859 271.043 278.457 276.645 278.457 282.25V387H216.113C216.113 387 216.93 217.023 216.113 199.426H278.457V225.984C286.742 213.203 301.566 195.023 334.645 195.023C375.664 195.023 406.422 221.832 406.422 279.445V387Z" fill="#2F274C"/>
</svg>
